X:10
T:If There Weren't Any Women in the World
T:If We Hadn't Any Women in the World
T:Bereffoy, The
R:barndance
D:Hammy Hamilton
D:Harry Bradley
D:James Morrison
Z:id:hn-barndance-10
M:C|
L:1/8
K:G
Bc | dedB GA (3BAG | E2E2 D2GA | BGBd edBG | A2AB A2Bc |
dedB GA (3BAG | E2E2 D2GA | B2dB AGAB | G2GF G2 :|
|: cd | e2ef g2gf | eddB d2 (3Bcd | edBd gedB | A2AG A2Bc |
dedB GABG | E2E2 D2GA | B2dB AGAB | G2GF G2 :|
P:variations
|: Bc | dedB GABG | EAGE D2GA | BGBd gedB | A2AG A2Bc |
dedB GABG | EAGE D2GA | B2BG AGAB | G2GF G2 :|
|: Bd | e2ef g3f | e2d2 d2GA | B2AB edBG | A2AG A2Bc |
dedB GABG | EAGE D2GA | B2BG AGAB | G2GF G2 :|

